!!!OTL: Harter Entschluss
!!!ARE: Europa, Mitteleuropa, Deutschland
!!!SCT: A0117
!!!YEM: Copyright 1995, estate of Helmut Schaffrath.
**kern
*ICvox
*Ivox
!! Mixed meters:  4/2; 6/2
*M4/2
*k[b-]
*F:
{2f
=1
2f
2a
2g
2f
=2
1e
2f}
{2g
=3
*M6/2
1a
2a
2b-
1g
=4
*M4/2
1.f}
{2f
=5
2f
2a
2g
2f
=6
1e
2f}
{2g
=7
*M6/2
1a
2a
2b-
1g
=8
*M4/2
1.f}
{2f
=9
2a
2g
2a
2b-
=10
1cc
2f}
{2b-
=11
2a
2a
2a
4g
4f
=12
1e
2f}
{2g
=13
*M6/2
2a
2b-
2cc
2a
1g
=14
1.f}
==
!!!AGN: Romanze, Ballade, Lied
!! Forster III. 1549 No. 61.
!!!ONB: ESAC (Essen Associative Code) Database: ALTDEU
!!!AMT: irregular
!!!AIN: vox
!!!EED: Helmut Schaffrath
!!!EEV: 1.0
*-
